icon-themes/colibre_svg/vcl/res/draw_polygon.svg

<svg viewBox="0 0 256 256" xmlns="http://www.w3.org/2000/svg"><path d="m84 16v8 48h-56v24h56v56h24v-56h56v-24h-56v-56zm64 136v8 88h24v-37.78125l3.46875 5.78125h15.20312l13.32813-10v18h4.68751l-4.68751 4.6875v19.3125h19.3125l20.6875-20.6875v-11.3125-4.6875l3.3125-3.3125h-3.3125v-8h-16v-32h-18.65625l-21.8125 16.32813-18.95312-32.32813z" fill="#fff"/><path d="m92 24v56h-56v8h56v56h8v-56h56v-8h-56v-56zm64 136v80h8v-58.67187l16 26.67187h8l24-18v26h8 8l-16 16v8h8l16-16v-8-8h-16v-32h-8l-26.84375 20.09375-21.15625-36.09375z"/></svg>

<svg xmlns="http://www.w3.org/2000/svg" viewBox="0 0 256 256">
  <path
     style="fill:#ffffff"
     d="m 84,16 v 8 48 H 28 v 24 h 56 v 56 h 24 V 96 h 56 V 72 H 108 V 16 Z m 64,136 v 8 88 h 24 V 210.21875 L 175.46875,216 h 15.20312 L 204,206 v 18 h 4.68751 L 204,228.6875 V 248 h 19.3125 L 244,227.3125 V 216 211.3125 L 247.3125,208 H 244 v -8 H 228 V 168 H 209.34375 L 187.53125,184.32813 168.57813,152 Z"
     />
  <path
     style="fill:#000000"
     d="M 92,24 V 80 H 36 v 8 h 56 v 56 h 8 V 88 H 156 V 80 H 100 V 24 Z m 64,136 v 80 h 8 V 181.32813 L 180,208 h 8 l 24,-18 v 26 h 8 8 l -16,16 v 8 h 8 l 16,-16 v -8 -8 h -16 v -32 h -8 L 185.15625,196.09375 164,160 Z"
     />
</svg>
